src/main/resources/icons/MarkdownIcons/META-INF/pluginIcon.svg

<svg xmlns="http://www.w3.org/2000/svg" xmlns:xlink="http://www.w3.org/1999/xlink" width="40" height="40" viewBox="0 0 40 40">
  <defs>
    <polygon id="markdownsupport-a" points="0 0 36 0 36 22 0 22"/>
  </defs>
  <g fill="none" fill-rule="evenodd" transform="translate(2 9)">
    <mask id="markdownsupport-b" fill="#fff">
      <use xlink:href="#markdownsupport-a"/>
    </mask>
    <path fill="#000" d="M17.9746,20.2793 C23.0756,20.2793 28.1756,20.2723 33.2766,20.2883 C33.8186,20.2903 34.2766,19.9183 34.2746,19.2973 C34.2606,13.7473 34.2666,8.1973 34.2666,2.6483 C34.2666,2.0743 33.9136,1.7203 33.3386,1.7203 C23.1146,1.7203 12.8896,1.7203 2.6646,1.7203 C2.0866,1.7203 1.7336,2.0723 1.7336,2.6453 C1.7336,8.2173 1.7336,13.7913 1.7346,19.3633 C1.7346,19.9253 2.0896,20.2793 2.6496,20.2793 L17.9746,20.2793 Z M17.9886,22.0003 L2.6366,22.0003 C1.1486,22.0003 -0.0004,20.8573 -0.0004,19.3773 L-0.0004,2.6103 C-0.0004,1.1453 1.1516,0.0003 2.6246,0.0003 L33.3746,0.0003 C34.8476,0.0003 35.9996,1.1453 35.9996,2.6103 L35.9996,19.3783 C35.9996,20.8573 34.8506,22.0003 33.3626,22.0003 L17.9886,22.0003 Z" mask="url(#markdownsupport-b)"/>
    <path fill="#000" d="M19.0166 16.8311L15.5786 16.8311 15.5786 10.2151C15.5626 10.2091 15.5456 10.2031 15.5296 10.1981 14.3976 11.6021 13.2656 13.0071 12.1156 14.4341 10.9726 13.0161 9.8396 11.6111 8.6626 10.1501L8.6626 16.8271 5.2186 16.8271 5.2186 5.1741C5.2766 5.1701 5.3436 5.1621 5.4106 5.1621 6.4256 5.1611 7.4416 5.1641 8.4566 5.1581 8.6056 5.1571 8.6956 5.2041 8.7876 5.3191 9.8596 6.6601 10.9386 7.9961 12.0156 9.3321 12.0446 9.3681 12.0786 9.4001 12.1206 9.4461 12.5976 8.8541 13.0706 8.2691 13.5416 7.6831 14.1846 6.8851 14.8266 6.0841 15.4726 5.2891 15.5206 5.2301 15.6066 5.1671 15.6756 5.1671 16.7846 5.1591 17.8926 5.1621 19.0166 5.1621L19.0166 16.8311zM25.0869 5.1694L28.5459 5.1694 28.5459 11.1554 32.0309 11.1554C30.2719 13.0774 28.5569 14.9524 26.8269 16.8414 25.1049 14.9604 23.3909 13.0864 21.6419 11.1764L25.0869 11.1764 25.0869 5.1694z"/>
  </g>
</svg>

<svg xmlns="http://www.w3.org/2000/svg" xmlns:xlink="http://www.w3.org/1999/xlink" width="40" height="40" viewBox="0 0 40 40"><rect id="frame" width="40" height="40" fill="none"/><defs><path id="a" d="M0 0h36v22H0z"/></defs><g fill="none" fill-rule="evenodd" transform="translate(2 9)"><mask id="b" fill="#fff"><use xlink:href="#a"/></mask><path fill="#000" d="M17.975 20.28c5.1 0 10.2-.008 15.302.008.542.002 1-.37.998-.99-.014-5.55-.008-11.1-.008-16.65 0-.574-.353-.928-.928-.928H2.665c-.578 0-.931.352-.931.925v16.718c0 .562.356.916.916.916h15.325zm.014 1.72H2.637C1.149 22 0 20.857 0 19.377V2.61C0 1.145 1.152 0 2.625 0h30.75C34.848 0 36 1.145 36 2.61v16.768C36 20.858 34.85 22 33.363 22H17.989z" mask="url(#b)"/><path fill="#000" d="M19.017 16.831h-3.438v-6.616a.95.95 0 0 0-.05-.017l-3.413 4.236-3.453-4.284v6.677H5.219V5.174c.058-.004.125-.012.192-.012 1.015 0 2.03.002 3.046-.004a.374.374 0 0 1 .33.161C9.86 6.66 10.94 7.996 12.017 9.332c.029.036.063.068.105.114.477-.592.95-1.177 1.42-1.763.644-.798 1.286-1.599 1.932-2.394.048-.059.134-.122.203-.122 1.109-.008 2.217-.005 3.34-.005v11.67zm6.07-11.662h3.459v5.986h3.485l-5.204 5.686-5.185-5.665h3.445V5.17z"/></g></svg>
